X:17
T:The Rose in the Heather
N:Cillian O'Dalaigh lesson, flute played by Kirsten Allstaff
R:Jig
Z:Gwen 2018-06-10
M:6/8
Q:3/8=90
K:D
|: FFF EFE | DFA BAF | ABd e2e | fdB AFE |
   D2F EDE | D2A BAF | B/c/dB AFE | FDD D3 :|
|: fdB ABd | faa afd | geg fff | edB A2D |
   FDB AB/c/d | f2a afa | bag gae | fdc d3 :|

